X:1
T:The Lost Are Coming Home
T:The Lost Are Coming Home
T:John Robson Sweney
T:James Morrow, 1891
T:Public Domain Courtesy of the Cyber Hymnal™
C:John Robson Sweney
Z:Public Domain
Z:Courtesy of the Cyber Hymnal™
%%score ( 1 2 ) ( 3 4 )
L:1/8
Q:1/4=107
M:4/4
K:Eb
V:1 treble 
V:2 treble 
V:3 bass 
V:4 bass 
V:1
 E2 | [EG]3 [EF] (EF) ([EG][FA]) | [GB]2 [Ac]2 [GB]2 [Ge]2 | [Ge]2 [Ac]2 [GB]2 [EG]2 | %4
w: 1.~Lift|up your ring- * ing *|songs to- night, On|mount- ain top or|
w: 2.~Some|cheeks are seamed * by *|years of sin, And|some are flushed in|
w: 3.~From|those who knew * the *|Sav- ior’s love, They|heard the Gos- pel|
w: 4.~Ho-|san- nas ring * from *|ev- ery voice, They|reach to Heav- en’s|
 [DF]6 [DB]2 | [EG]3 [EF] (EF) ([EG][FA]) | [GB]2 [Ac]2 [GB]2 [Ge]2 | [Ge]2 [EB]2 [DA]2 [DF]2 | %8
w: shore; For|an- gel hearts * will *|throb in joy, With|glad news flow- ing|
w: youth; But|all have known * their *|need of Christ, And|all have found the|
w: “Come”; In|Him they trust, * and *|kept by Him, They|will no long- er|
w: dome; An-|gels and saints, * re- *|joice, re- joice, The|lost are com- ing|
 E6 ||"^Refrain" [EB]2 | [EB] G3 [GB]4 | [Ac] e3 [Ge]3 [Ac] | [GB]2 [EG]2 [B,F]2 [CE]2 | %13
w: o’er.|||||
w: truth.|They’re|com- ing home,|com- ing home, The|Sav- ior bids them|
w: roam.|||||
w: home.|||||
 [DB]6 ([Fc][Ad]) | [Ge]3 [Ge] ([Ge][Bd]) ([Ac][GB]) | [Ac]2 [GB]2 [EG]2 E2 | %16
w: |||
w: come; Praise *|God, the wea- * ry, *|wan- dering ones, The|
w: |||
w: |||
 [DF]2 [DB]2 [DA] [DF]3 | E6 |] %18
w: ||
w: lost are com- ing|home.|
w: ||
w: ||
V:2
 E2 | x4 E2 x2 | x8 | x8 | x8 | x4 E2 x2 | x8 | x8 | E6 || x2 | x (EEE) x4 | x (AAA) x4 | x8 | x8 | %14
 x8 | x6 E2 | x8 | E6 |] %18
V:3
 [E,G,]2 | [E,B,]3 [E,A,] (G,A,) [E,B,]2 | [E,E]2 [E,E]2 [E,E]2 [E,B,]2 | %3
w: ~|~ ~ ~ * ~|~ ~ ~ ~|
 [E,B,]2 [E,E]2 [E,B,]2 [E,B,]2 | [B,,B,]6 [B,,B,]2 | [E,B,]3 [E,A,] (G,A,) [E,B,]2 | %6
w: ~ ~ ~ ~|~ ~|~ ~ ~ * ~|
 [E,E]2 [E,E]2 [E,E]2 [E,B,]2 | [E,B,]2 [E,G,]2 [B,,F,]2 [B,,A,]2 | [E,G,]6 || [E,G,]2 | %10
w: ~ ~ ~ ~|~ ~ ~ ~|~|They’re|
 [E,G,][E,G,][E,B,][E,B,] [E,E]4 | [A,E][A,C][A,C][A,C] [E,B,]3 [E,E] | %12
w: com- ing, com- ing home,|Com- ing, com- ing home, *|
 [E,E]2 [E,B,]2 [D,B,]2 [C,=A,]2 | [B,,B,]6 B,2 | [E,B,]3 [E,B,] [E,B,]2 [E,E]2 | %15
w: |||
 [E,E]2 [E,E]2 [E,B,]2 [G,B,]2 | B,2 [B,,F,]2 [B,,F,] [B,,A,]3 | [E,G,]6 |] %18
w: |||
V:4
 x2 | x4 E,2 x2 | x8 | x8 | x8 | x4 E,2 x2 | x8 | x8 | x6 || x2 | x8 | x8 | x8 | x6 (A,F,) | x8 | %15
 x8 | B,2 x6 | x6 |] %18

